src/assets/icons/tab/home.svg

<svg width="24" height="24" viewBox="0 0 24 24" fill="none" xmlns="http://www.w3.org/2000/svg">
  <g clip-path="url(#a)">
    <path
      d="m23.6331 10.226-11-9.00003c-.1786-.14606-.4023-.22585-.633-.22585-.2307 0-.4544.07979-.633.22585L.367099 10.226c-.200674.1693-.3267069.4107-.3508846.6722-.0241777.2614.0554394.5219.2216606.7251.166221.2033.405708.333.666753.3612.261042.0282.522702-.0474.728472-.2105l1.367-1.118V22c0 .2652.10536.5195.29289.7071.18754.1875.44189.2929.70711.2929h6v-6h4v6h6c.2652 0 .5196-.1054.7071-.2929.1875-.1876.2929-.4419.2929-.7071V10.656l1.367 1.118c.1014.0855.2187.15.3452.1897.1265.0398.2597.0539.3917.0417.1321-.0122.2604-.0505.3775-.1128.1171-.0623.2206-.1472.3046-.2499.0839-.1026.1466-.2209.1844-.348.0378-.1272.0499-.2605.0357-.3924-.0142-.1318-.0546-.2595-.1186-.3756-.0641-.1161-.1506-.2184-.2545-.3007Z"
      fill="currentColor" />
  </g>
  <defs>
    <clipPath id="a">
      <path fill="#fff" d="M0 0h24v24H0z" />
    </clipPath>
  </defs>
</svg>

<svg width="24" height="24" viewBox="0 0 24 24" fill="none" xmlns="http://www.w3.org/2000/svg">
<g clip-path="url(#clip0_171_3)">
<path d="M23.6331 10.226L12.6331 1.22597C12.4545 1.07991 12.2308 1.00012 12.0001 1.00012C11.7694 1.00012 11.5457 1.07991 11.3671 1.22597L0.367099 10.226C0.166425 10.3953 0.0403921 10.6367 0.0162144 10.8982C-0.00796332 11.1596 0.0716538 11.4201 0.237875 11.6233C0.404096 11.8266 0.643583 11.9563 0.904628 11.9845C1.16567 12.0127 1.42733 11.9371 1.6331 11.774L3.0001 10.656V22C3.0001 22.2652 3.10546 22.5195 3.29299 22.7071C3.48053 22.8946 3.73488 23 4.0001 23H10.0001V17H14.0001V23H20.0001C20.2653 23 20.5197 22.8946 20.7072 22.7071C20.8947 22.5195 21.0001 22.2652 21.0001 22V10.656L22.3671 11.774C22.4685 11.8595 22.5858 11.924 22.7123 11.9637C22.8388 12.0035 22.972 12.0176 23.104 12.0054C23.2361 11.9932 23.3644 11.9549 23.4815 11.8926C23.5986 11.8303 23.7021 11.7454 23.7861 11.6427C23.87 11.5401 23.9327 11.4218 23.9705 11.2947C24.0083 11.1675 24.0204 11.0342 24.0062 10.9023C23.992 10.7705 23.9516 10.6428 23.8876 10.5267C23.8235 10.4106 23.737 10.3083 23.6331 10.226Z" fill="#898989"/>
</g>
<defs>
<clipPath id="clip0_171_3">
<rect width="24" height="24" fill="white"/>
</clipPath>
</defs>
</svg>
